dist/svg/u1FA81.svg

<?xml version="1.0" encoding="UTF-8"?><svg id="a" xmlns="http://www.w3.org/2000/svg" viewBox="0 0 40 40"><g><line x1="15.42" y1="15.981" x2="24.576" y2="24.021" fill="none" stroke="#65778e" stroke-miterlimit="10" stroke-width=".487"/><path d="M37.236,16.018L21.722,2.393c-.371-.326-.937-.29-1.263,.082L11.569,12.599l3.852,3.382c2.22-2.528,6.07-2.778,8.598-.558s2.778,6.07,.558,8.598l3.852,3.382,8.89-10.123c.326-.371,.29-.937-.082-1.263Z" fill="#e7e7e7"/><path d="M14.018,21.161c-.345-1.786,.109-3.707,1.402-5.18l-3.852-3.382L2.679,22.722c-.152,.173-.222,.389-.219,.603l11.559-2.164Z" fill="#557f64"/><path d="M18.968,37.823l.653-11.742c-1.301-.08-2.587-.575-3.643-1.502l-5.461,6.218,7.757,6.812c.198,.174,.451,.242,.694,.213Z" fill="#375481"/><path d="M14.018,21.161l-11.559,2.164c.003,.244,.103,.486,.301,.66l7.757,6.812,5.461-6.218c-1.056-.927-1.712-2.138-1.96-3.418Z" fill="#ffc84d"/><path d="M19.621,26.081l-.653,11.742c.213-.025,.417-.122,.57-.295l8.89-10.123-3.852-3.382c-1.292,1.458-3.149,2.17-4.956,2.059Z" fill="#be4b56"/><line x1="24.018" y1="15.423" x2="15.978" y2="24.579" fill="none" stroke="#65778e" stroke-miterlimit="10" stroke-width=".487"/><line x1="25.979" y1="18.843" x2="14.017" y2="21.159" fill="none" stroke="#65778e" stroke-miterlimit="10" stroke-width=".487"/><line x1="20.423" y1="13.924" x2="19.573" y2="26.079" fill="none" stroke="#65778e" stroke-miterlimit="10" stroke-width=".487"/><circle cx="27.065" cy="11.953" r="2.191" fill="#50739f"/></g><rect width="40" height="40" fill="none"/></svg>

<svg id="Layer_1" data-name="Layer 1" xmlns="http://www.w3.org/2000/svg" viewBox="0 0 40 40"><defs><style>.cls-1,.cls-8{fill:none;}.cls-1{stroke:#65778e;stroke-miterlimit:10;stroke-width:0.487px;}.cls-2{fill:#e7e7e7;}.cls-3{fill:#557f64;}.cls-4{fill:#375481;}.cls-5{fill:#ffc84d;}.cls-6{fill:#be4b56;}.cls-7{fill:#50739f;}</style></defs><line class="cls-1" x1="15.42" y1="15.981" x2="24.576" y2="24.021"/><path class="cls-2" d="M37.236,16.018,21.722,2.393a.9.9,0,0,0-1.263.082L11.569,12.6l3.851,3.382a6.093,6.093,0,0,1,9.156,8.041L28.428,27.4l8.89-10.123A.9.9,0,0,0,37.236,16.018Z"/><path class="cls-3" d="M14.018,21.161a6.083,6.083,0,0,1,1.4-5.18L11.569,12.6,2.679,22.722a.885.885,0,0,0-.22.6Z"/><path class="cls-4" d="M18.968,37.823l.653-11.742a6.065,6.065,0,0,1-3.643-1.5L10.517,30.8l7.757,6.813A.894.894,0,0,0,18.968,37.823Z"/><path class="cls-5" d="M14.018,21.161,2.459,23.325a.889.889,0,0,0,.3.66L10.517,30.8l5.461-6.218A6.072,6.072,0,0,1,14.018,21.161Z"/><path class="cls-6" d="M19.621,26.081l-.653,11.742a.9.9,0,0,0,.57-.3L28.428,27.4l-3.852-3.382A6.136,6.136,0,0,1,19.621,26.081Z"/><line class="cls-1" x1="24.018" y1="15.423" x2="15.978" y2="24.579"/><line class="cls-1" x1="25.979" y1="18.843" x2="14.017" y2="21.159"/><line class="cls-1" x1="20.423" y1="13.924" x2="19.573" y2="26.079"/><circle class="cls-7" cx="27.065" cy="11.953" r="2.191"/><rect class="cls-8" width="40" height="40"/></svg>
